X:540
T: "Der Baum im Odenwald"
N: Z1220
O: Europa, Mitteleuropa, Deutschland, Franken
R: Liebes - Lied, verlassene Liebe, Klage, Leid
M: 4/4
L: 1/8
K: Eb
EG | B2B2G2E2 | FEFGF2
EG | B2B2G2E2 | F4z2
Bd | f2f2d2B2 | B3ee2
Bd | f2f2d2B2 | e4z2

@@@ Tune index: 10298
